austria/municipalities/70216.svg

<?xml version="1.0" encoding="UTF-8"?>
<!DOCTYPE svg PUBLIC "-//W3C//DTD SVG 1.1//EN" "http://www.w3.org/Graphics/SVG/1.1/DTD/svg11.dtd">
<svg xmlns="http://www.w3.org/2000/svg" version="1.1" width="166px" height="192px" style="shape-rendering:geometricPrecision; text-rendering:geometricPrecision; image-rendering:optimizeQuality; fill-rule:evenodd; clip-rule:evenodd" xmlns:xlink="http://www.w3.org/1999/xlink">
<g><path style="opacity:1" fill="#0a0b0e" d="M -0.5,-0.5 C 54.8333,-0.5 110.167,-0.5 165.5,-0.5C 165.5,39.1667 165.5,78.8333 165.5,118.5C 157.5,159.167 133.167,183.5 92.5,191.5C 85.5,191.5 78.5,191.5 71.5,191.5C 30.4766,182.81 6.47657,157.81 -0.5,116.5C -0.5,77.5 -0.5,38.5 -0.5,-0.5 Z"/></g>
<g><path style="opacity:1" fill="#253167" d="M 14.5,71.5 C 12.076,76.8468 10.4093,82.5134 9.5,88.5C 7.22418,93.905 5.39085,99.5716 4,105.5C 3.50002,71.5016 3.33335,37.5016 3.5,3.5C 13.5,3.5 23.5,3.5 33.5,3.5C 26.8541,26.0843 20.5207,48.7509 14.5,71.5 Z"/></g>
<g><path style="opacity:1" fill="#253167" d="M 60.5,21.5 C 56.076,33.5126 52.4094,45.8459 49.5,58.5C 45.076,70.5126 41.4094,82.8459 38.5,95.5C 37.3995,97.2774 36.5662,99.2774 36,101.5C 35.5,68.835 35.3334,36.1684 35.5,3.5C 45.5056,3.33352 55.5056,3.50019 65.5,4C 63.1343,9.62875 61.4677,15.4621 60.5,21.5 Z"/></g>
<g><path style="opacity:1" fill="#253167" d="M 66.5,3.5 C 77.1667,3.5 87.8333,3.5 98.5,3.5C 98.5,64.5 98.5,125.5 98.5,186.5C 87.8333,187.833 77.1667,187.833 66.5,186.5C 66.5,125.5 66.5,64.5 66.5,3.5 Z"/></g>
<g><path style="opacity:1" fill="#253167" d="M 120.5,74.5 C 117.591,61.8459 113.924,49.5126 109.5,37.5C 106.502,26.1728 103.502,14.8394 100.5,3.5C 110.167,3.5 119.833,3.5 129.5,3.5C 129.667,35.8351 129.5,68.1684 129,100.5C 126.43,91.6263 123.597,82.9596 120.5,74.5 Z"/></g>
<g><path style="opacity:1" fill="#253167" d="M 152.5,77.5 C 151.591,71.5134 149.924,65.8468 147.5,60.5C 143.102,42.8944 138.102,25.5611 132.5,8.5C 132.579,7.06953 132.246,5.73619 131.5,4.5C 141.478,3.50148 151.478,3.16814 161.5,3.5C 161.667,37.1683 161.5,70.835 161,104.5C 158.609,95.2406 155.776,86.2406 152.5,77.5 Z"/></g>
<g><path style="opacity:1" fill="#454240" d="M 132.5,8.5 C 132.5,9.16667 132.5,9.83333 132.5,10.5C 131.833,43.1667 131.167,75.8333 130.5,108.5C 130.333,74.8317 130.5,41.165 131,7.5C 131.383,8.05596 131.883,8.38929 132.5,8.5 Z"/></g>
<g><path style="opacity:1" fill="#95928f" d="M 34.5,108.5 C 33.8333,76.1667 33.1667,43.8333 32.5,11.5C 32.9867,10.5266 33.4867,9.52656 34,8.5C 34.5,41.8317 34.6667,75.165 34.5,108.5 Z"/></g>
<g><path style="opacity:1" fill="#fdfdfd" d="M 9.5,88.5 C 12.142,83.2294 13.8086,77.5627 14.5,71.5C 21.0683,51.7847 27.0683,31.7847 32.5,11.5C 33.1667,43.8333 33.8333,76.1667 34.5,108.5C 36.8978,104.597 38.2311,100.264 38.5,95.5C 42.9217,83.4988 46.5883,71.1654 49.5,58.5C 53.9217,46.4988 57.5883,34.1654 60.5,21.5C 62.4619,17.4523 63.9619,13.1189 65,8.5C 65.5,67.4991 65.6667,126.499 65.5,185.5C 28.9968,175.491 8.33014,151.658 3.5,114C 5.57938,105.516 7.57938,97.016 9.5,88.5 Z"/></g>
<g><path style="opacity:1" fill="#fdfdfd" d="M 109.5,37.5 C 112.191,50.2303 115.858,62.5637 120.5,74.5C 122.921,86.1984 126.254,97.5317 130.5,108.5C 131.167,75.8333 131.833,43.1667 132.5,10.5C 136.902,27.4603 141.902,44.127 147.5,60.5C 148.412,66.4979 150.078,72.1646 152.5,77.5C 155.5,89.5008 158.5,101.501 161.5,113.5C 158.105,145.709 141.771,168.543 112.5,182C 108.278,183.638 103.945,184.805 99.5,185.5C 99.3333,126.166 99.5,66.8324 100,7.5C 102.572,17.8184 105.738,27.8184 109.5,37.5 Z"/></g>
<g><path style="opacity:1" fill="#14151b" d="M 132.5,8.5 C 138.102,25.5611 143.102,42.8944 147.5,60.5C 141.902,44.127 136.902,27.4603 132.5,10.5C 132.5,9.83333 132.5,9.16667 132.5,8.5 Z"/></g>
<g><path style="opacity:1" fill="#16171c" d="M 60.5,21.5 C 57.5883,34.1654 53.9217,46.4988 49.5,58.5C 52.4094,45.8459 56.076,33.5126 60.5,21.5 Z"/></g>
<g><path style="opacity:1" fill="#15171c" d="M 109.5,37.5 C 113.924,49.5126 117.591,61.8459 120.5,74.5C 115.858,62.5637 112.191,50.2303 109.5,37.5 Z"/></g>
<g><path style="opacity:1" fill="#15171d" d="M 147.5,60.5 C 149.924,65.8468 151.591,71.5134 152.5,77.5C 150.078,72.1646 148.412,66.4979 147.5,60.5 Z"/></g>
<g><path style="opacity:1" fill="#16171b" d="M 49.5,58.5 C 46.5883,71.1654 42.9217,83.4988 38.5,95.5C 41.4094,82.8459 45.076,70.5126 49.5,58.5 Z"/></g>
<g><path style="opacity:1" fill="#191a1f" d="M 14.5,71.5 C 13.8086,77.5627 12.142,83.2294 9.5,88.5C 10.4093,82.5134 12.076,76.8468 14.5,71.5 Z"/></g>
<g><path style="opacity:1" fill="#fdfdfd" d="M -0.5,116.5 C 6.47657,157.81 30.4766,182.81 71.5,191.5C 47.5,191.5 23.5,191.5 -0.5,191.5C -0.5,166.5 -0.5,141.5 -0.5,116.5 Z"/></g>
<g><path style="opacity:1" fill="#fdfdfd" d="M 165.5,118.5 C 165.5,142.833 165.5,167.167 165.5,191.5C 141.167,191.5 116.833,191.5 92.5,191.5C 133.167,183.5 157.5,159.167 165.5,118.5 Z"/></g>
</svg>

<svg xmlns="http://www.w3.org/2000/svg" width="166" height="192" style="shape-rendering:geometricPrecision;text-rendering:geometricPrecision;image-rendering:optimizeQuality;fill-rule:evenodd;clip-rule:evenodd"><path style="opacity:1" fill="#0a0b0e" d="M-.5-.5h166v119c-8 40.667-32.333 65-73 73h-21c-41.023-8.69-65.023-33.69-72-75V-.5z"/><path style="opacity:1" fill="#253167" d="M14.5 71.5c-2.424 5.347-4.09 11.013-5 17-2.276 5.405-4.11 11.072-5.5 17-.5-33.998-.667-67.998-.5-102h30a2570.43 2570.43 0 0 0-19 68zM60.5 21.5a304.147 304.147 0 0 0-11 37 304.147 304.147 0 0 0-11 37c-1.1 1.777-1.934 3.777-2.5 6-.5-32.665-.667-65.332-.5-98a450.44 450.44 0 0 1 30 .5 76.077 76.077 0 0 0-5 17.5zM66.5 3.5h32v183a128.532 128.532 0 0 1-32 0V3.5zM120.5 74.5a304.076 304.076 0 0 0-11-37l-9-34h29c.167 32.335 0 64.668-.5 97a396.26 396.26 0 0 0-8.5-26zM152.5 77.5c-.909-5.987-2.576-11.653-5-17a746.817 746.817 0 0 0-15-52 6.845 6.845 0 0 0-1-4 225.876 225.876 0 0 1 30-1c.167 33.668 0 67.335-.5 101a267.276 267.276 0 0 0-8.5-27z"/><path style="opacity:1" fill="#454240" d="M132.5 8.5v2l-2 98c-.167-33.668 0-67.335.5-101 .383.556.883.89 1.5 1z"/><path style="opacity:1" fill="#95928f" d="m34.5 108.5-2-97 1.5-3c.5 33.332.667 66.665.5 100z"/><path style="opacity:1" fill="#fdfdfd" d="M9.5 88.5c2.642-5.27 4.309-10.937 5-17a1044.721 1044.721 0 0 0 18-60l2 97c2.398-3.903 3.731-8.236 4-13a303.764 303.764 0 0 0 11-37 303.764 303.764 0 0 0 11-37c1.962-4.048 3.462-8.381 4.5-13 .5 59 .667 117.999.5 177-36.503-10.009-57.17-33.842-62-71.5a1413.21 1413.21 0 0 0 6-25.5zM109.5 37.5c2.691 12.73 6.358 25.064 11 37a214.313 214.313 0 0 0 10 34l2-98a691.345 691.345 0 0 0 15 50c.912 5.998 2.578 11.665 5 17l9 36c-3.395 32.209-19.729 55.043-49 68.5a62.56 62.56 0 0 1-13 3.5c-.167-59.334 0-118.668.5-178a249.036 249.036 0 0 0 9.5 30z"/><path style="opacity:1" fill="#14151b" d="M132.5 8.5a746.817 746.817 0 0 1 15 52 691.345 691.345 0 0 1-15-50v-2z"/><path style="opacity:1" fill="#16171c" d="M60.5 21.5a303.764 303.764 0 0 1-11 37 304.147 304.147 0 0 1 11-37z"/><path style="opacity:1" fill="#15171c" d="M109.5 37.5a304.076 304.076 0 0 1 11 37c-4.642-11.936-8.309-24.27-11-37z"/><path style="opacity:1" fill="#15171d" d="M147.5 60.5c2.424 5.347 4.091 11.013 5 17-2.422-5.335-4.088-11.002-5-17z"/><path style="opacity:1" fill="#16171b" d="M49.5 58.5a303.764 303.764 0 0 1-11 37 304.147 304.147 0 0 1 11-37z"/><path style="opacity:1" fill="#191a1f" d="M14.5 71.5c-.691 6.063-2.358 11.73-5 17 .91-5.987 2.576-11.653 5-17z"/><path style="opacity:1" fill="#fdfdfd" d="M-.5 116.5c6.977 41.31 30.977 66.31 72 75h-72v-75zM165.5 118.5v73h-73c40.667-8 65-32.333 73-73z"/></svg>
